Papirus/22x22/apps/qprompt.svg

<svg width="22" height="22" version="1.1" xmlns="http://www.w3.org/2000/svg">
 <path d="m13.654561 20.507044h-5.3020749a3.4263177 3.4263177 0 0 1-2.3378404-0.92149l-3.0273343-2.825512a3.1078616 3.1078616 0 0 1-0.9873114-2.27202l9e-7 -5.635536a3.2604652 3.2604652 0 0 1 0.9549681-2.3054972l3.0920201-3.0920209a3.2604629 3.2604629 0 0 1 2.305497-0.9549679l5.3020749 6e-7a3.2604647 3.2604647 0 0 1 2.305496 0.9549679l3.09202 3.0920203a3.2604638 3.2604638 0 0 1 0.95497 2.3054972v5.635536a3.1078618 3.1078618 0 0 1-0.987311 2.272021l-3.027336 2.825512a3.4263179 3.4263179 0 0 1-2.337839 0.921489z" style="opacity:.2"/>
 <path d="m13.654561 20.007044h-5.3020749a3.4263177 3.4263177 0 0 1-2.3378404-0.92149l-3.0273343-2.825512a3.1078616 3.1078616 0 0 1-0.9873114-2.27202l9e-7 -5.6355365a3.2604652 3.2604652 0 0 1 0.9549681-2.3054967l3.0920201-3.092021a3.2604629 3.2604629 0 0 1 2.305497-0.9549678l5.3020749 5e-7a3.2604647 3.2604647 0 0 1 2.305496 0.9549679l3.09202 3.0920204a3.2604638 3.2604638 0 0 1 0.95497 2.3054967v5.6355365a3.1078618 3.1078618 0 0 1-0.987311 2.272021l-3.027336 2.825512a3.4263179 3.4263179 0 0 1-2.337839 0.921489z" style="fill:#4f4f4f"/>
 <path d="m2 8.5v1.2050781l12.552734 7.7441409c0.229317 0.152572 0.526808-0.06857 0.427735-0.31836l-3.503907-7.8691402c-0.202081-0.4539238-0.646179-0.7617188-1.162109-0.7617188h-8.314453zm12.693359 2c-0.787894 0-1.189021 0.627042-0.90039 1.40625l0.439453 1.1875c0.288631 0.779208 1.155467 1.40625 1.943359 1.40625h3.789063a3.1078618 3.1078618 0 0 0 0.042968-0.511719v-2.792969c-0.400658-0.416111-0.959534-0.695312-1.484374-0.695312h-3.830079z" style="opacity:.1"/>
 <path d="m14.980428 16.630523-3.503453-7.8695405c-0.202084-0.453925-0.646896-0.7609825-1.162826-0.7609825h-8.9186044c-0.3880687 0.003051-0.54269404 0.4810474-0.2241324 0.693001l13.381002 8.256977c0.229317 0.152572 0.527087-0.06967 0.428014-0.319455z" style="fill:#17c7e1"/>
 <path d="m14.693851 10h3.829826c0.787893 0 1.654558 0.627307 1.943187 1.406518l0.439666 1.186962c0.288632 0.779211-0.113308 1.40652-0.9012 1.40652h-3.829829c-0.787895 0-1.654557-0.627309-1.943188-1.40652l-0.439665-1.186962c-0.288631-0.779211 0.113306-1.406518 0.901203-1.406518z" style="fill:#2ec27e;stop-color:#000000"/>
 <path d="m8.3515625 2a3.2604629 3.2604629 0 0 0-2.3046875 0.9550781l-3.0917969 3.0917969a3.2604652 3.2604652 0 0 0-0.9550781 2.3046875v0.5a3.2604652 3.2604652 0 0 1 0.9550781-2.3046875l3.0917969-3.0917969a3.2604629 3.2604629 0 0 1 2.3046875-0.9550781h5.3027345a3.2604647 3.2604647 0 0 1 2.306641 0.9550781l3.091796 3.0917969a3.2604638 3.2604638 0 0 1 0.955078 2.3046875v-0.5a3.2604638 3.2604638 0 0 0-0.955078-2.3046875l-3.091796-3.0917969a3.2604647 3.2604647 0 0 0-2.306641-0.9550781h-5.3027345z" style="fill:#ffffff;opacity:.1"/>
 <path d="m14.693359 10c-0.709504 0-1.10386 0.509506-0.964843 1.179688 0.097283-0.40755 0.446512-0.679688 0.964843-0.679688h3.830079c0.787891 0 1.65473 0.627041 1.943359 1.40625l0.439453 1.1875c0.02872 0.07753 0.04909 0.152516 0.06445 0.226562 0.05059-0.21195 0.0343-0.45997-0.06445-0.726562l-0.439453-1.1875c-0.288629-0.779209-1.155468-1.40625-1.943359-1.40625z" style="fill:#ffffff;opacity:.2"/>
 <path d="M 1.3964844,8 C 1.0416402,8.0027898 0.88282146,8.4022666 1.1015625,8.6328125 1.1702281,8.5557349 1.2692184,8.5010006 1.3964844,8.5 h 8.9179686 c 0.51593,0 0.960027,0.3077946 1.162109,0.7617188 L 14.894531,16.9375 c 0.08783,-0.06794 0.134662,-0.183795 0.08594,-0.306641 L 11.476562,8.7617188 C 11.27448,8.3077946 10.830383,8 10.314453,8 Z" style="fill:#ffffff;opacity:.2"/>
</svg>

<svg xmlns="http://www.w3.org/2000/svg" width="22" height="22" version="1.1">
 <path style="opacity:0.2" d="M 13.655,20.507 H 8.3525 A 3.4263,3.4263 0 0 1 6.0146,19.586 L 2.9873,16.76 A 3.1079,3.1079 0 0 1 2,14.488 V 8.8525 A 3.2605,3.2605 0 0 1 2.955,6.547 L 6.047,3.455 A 3.2605,3.2605 0 0 1 8.3525,2.5 H 13.655 A 3.2605,3.2605 0 0 1 15.96,3.455 L 19.052,6.547 A 3.2605,3.2605 0 0 1 20.007,8.8525 V 14.488 A 3.1079,3.1079 0 0 1 19.02,16.76 L 15.992,19.586 A 3.4263,3.4263 0 0 1 13.655,20.507 Z"/>
 <path style="fill:#4f4f4f" d="M 13.655,20.007 H 8.3525 A 3.4263,3.4263 0 0 1 6.0146,19.086 L 2.9873,16.26 A 3.1079,3.1079 0 0 1 2,13.988 V 8.3525 A 3.2605,3.2605 0 0 1 2.955,6.047 L 6.047,2.955 A 3.2605,3.2605 0 0 1 8.3525,2 H 13.655 A 3.2605,3.2605 0 0 1 15.96,2.955 L 19.052,6.047 A 3.2605,3.2605 0 0 1 20.007,8.3525 V 13.988 A 3.1079,3.1079 0 0 1 19.02,16.26 L 15.992,19.086 A 3.4263,3.4263 0 0 1 13.655,20.007 Z"/>
 <path style="opacity:0.1" d="M 2,8.5 V 9.7051 L 14.553,17.449 C 14.782,17.602 15.08,17.381 14.98,17.131 L 11.477,9.2617 C 11.274,8.8078 10.83,8.5 10.314,8.5 Z M 14.693,10.5 C 13.905,10.5 13.504,11.127 13.793,11.906 L 14.232,13.094 C 14.521,13.873 15.388,14.5 16.176,14.5 H 19.965 A 3.1079,3.1079 0 0 0 20.008,13.988 V 11.195 C 19.607,10.779 19.048,10.5 18.523,10.5 Z"/>
 <path style="fill:#17c7e1" d="M 14.98,16.631 11.477,8.761 C 11.275,8.3071 10.83,8 10.314,8 H 1.3955 C 1.0075,8.0031 0.85285,8.481 1.1714,8.693 L 14.552,16.95 C 14.782,17.103 15.08,16.88 14.98,16.631 Z"/>
 <path style="fill:#2ec27e" d="M 14.694,10 H 18.524 C 19.312,10 20.178,10.627 20.467,11.407 L 20.907,12.593 C 21.195,13.373 20.793,14 20.005,14 H 16.176 C 15.388,14 14.521,13.373 14.232,12.593 L 13.793,11.407 C 13.504,10.627 13.906,10 14.694,10 Z"/>
 <path style="opacity:0.1;fill:#ffffff" d="M 8.3516,2 A 3.2605,3.2605 0 0 0 6.0469,2.9551 L 2.9551,6.0469 A 3.2605,3.2605 0 0 0 2,8.3516 V 8.8516 A 3.2605,3.2605 0 0 1 2.9551,6.5469 L 6.0469,3.4551 A 3.2605,3.2605 0 0 1 8.3516,2.5 H 13.654 A 3.2605,3.2605 0 0 1 15.961,3.4551 L 19.053,6.5469 A 3.2605,3.2605 0 0 1 20.008,8.8516 V 8.3516 A 3.2605,3.2605 0 0 0 19.053,6.0469 L 15.961,2.9551 A 3.2605,3.2605 0 0 0 13.654,2 Z"/>
 <path style="opacity:0.2;fill:#ffffff" d="M 1.3965,8 C 1.0416,8.0028 0.88282,8.4023 1.1016,8.6328 1.1702,8.5557 1.2692,8.501 1.3965,8.5 H 10.314 C 10.83,8.5 11.274,8.8078 11.477,9.2617 L 14.895,16.938 C 14.982,16.87 15.029,16.754 14.98,16.631 L 11.477,8.7617 C 11.274,8.3078 10.83,8 10.314,8 Z M 14.693,10 C 13.984,10 13.589,10.51 13.729,11.18 13.826,10.772 14.175,10.5 14.693,10.5 H 18.523 C 19.311,10.5 20.178,11.127 20.467,11.906 L 20.906,13.094 C 20.935,13.171 20.955,13.246 20.971,13.32 21.021,13.108 21.005,12.86 20.906,12.594 L 20.467,11.406 C 20.178,10.627 19.311,10 18.523,10 Z"/>
</svg>
